X: 22340
T: La Varsovienne
R: mazurka
M: 3/4
K: Cmajor
|:G2|e>d e2 g2|e>d e2 G2|e>d e2 f2|d4 G2|
e>d e2 g2|e>d e2 G2|d>c d2 e2|c4:|
|:c2|B>A G2 d2|d4 c2|B>A G2 e2|e4 c2|
B>A G2 d2|d4 f2|1 e>d c>d e>f|g4:|2 e>d c2 e2|c4||

